X: 1
T: Rachel Elizabeth Zane
C: John Barnes 2018
N: Written for the dance "When Harry Wed Meghan" in 2018
N: "Ms Markle's best-known screen role, in the US television series Suits."
R: jig
Z: 2018 John Chambers <jc:trillian.mit.edu>
M: 6/8
L: 1/8
K: G
|:\
"G"B2d GAB | "Am"A2c "D"FGA | "Em"GAB "D7"ABc | "G"BdB "D7"A3 |\
"G"B2d "Em"GAB | "C"c2e "Am"gfe | "G"dBd "D7"cAF | "G"G3 G3 :|
|:\
"C"e2c "Am"gfe | "Bm"d2B fed | "Am"cBA "Em"BAG | "A7"A^ce "D"d3 |\
"C"e2c "Am"agf | "G"gfe "Em"dcB | "Am"cec [1 "D7"dAF | "G"G3 "G7"G3 :|2 "D7"def | "G"g3 g3 |]
